X:1
T:[ID 7-7]
T:[ID 7-7]
T:Bezeichnung standardisiert: Menuett Menuet 3.
T:Urheber unbekannt Datum in der hier transkribierten schriftlichen Quelle: 1776 - 1791
C:Urheber unbekannt
C:Datum in der hier transkribierten schriftlichen Quelle: 1776 - 1791
L:1/8
M:3/4
K:G
V:1 treble 
V:1
 g4 (3gab | d2 Tc2 B2 | A4 (3cde | d2 F2 G2 | GBdgbg | a2 ^c2 d2 |{f} e2 d2 T^c2 |{^c} d4 D2 :: %8
 d4 (3de_f | edcB A2 | c4 (3cde | dcBA G2 |{AB} c2 B2 A2 | G2 F2 E2 | AcBAGF | G4 G,2 :| %16

